X:12
T:Miss Susan Spalding's Jigg
C:Robert Petrie
S:Petrie's Collection of Strathspey Reels and Country Dances &c., 1790
Z:Steve Wyrick , 2/28/04
N:Petrie's First Collection, page 6
L:1/8
M:6/8
R:Jig
K:Em
e|B2E E>FE|BGE   E2^c | d^cB AdG|F>EF D2F |
  B2E E>FE|B^c^d e=d=c| BGB  AGF|GEE  E2 :|
B|efe gfe |bge   efg  |Tfef  dfg|afd  def |
  efe gfe |bge   geB  | ABc  BcA|GEE  E2B |
  efe gfe |bge   efg  |Tfef  dfg|afd  def |
  gbg faf |egf   edc  | BcB  AGF|GEE  E2 |]
